X:1
T:Title
%%score 1 { ( 2 4 ) | ( 3 5 ) }
L:1/8
M:6/8
K:F
V:1 treble nm="Akkordion"
V:2 bass nm="Grand Piano"
V:4 bass 
V:3 bass 
V:5 bass 
V:1
 z3 z2[Q:1/4=81] C/C/ | C2 B,/C/ F2 F/E/ | D2 E/F/ C2 F/G/ | A2 A/A/ A2 G/F/ | %4
[M:7/8] F2 E/F/ G3 C/C/ |[M:3/4] c2 =B/c/ F2 E/F/ | B2 c/B/ A2 A/A/ | G2 A/B/ c2 F/F/ | %8
 F2 E/E/ F3 |[M:1/8] z |[M:3/4] z6 | z6 | z6 |[M:7/8] z7 |[M:3/4] z6 | z6 | z6 |[M:5/8] z5 |] %18
V:2
 z3 z2 [F,A,C] | [E,G,B,C]3 [F,CF]3 | [F,B,D]3 .[F,C]3 | [F,A,CF]3 [F,A,CF]3 | %4
[M:7/8] [F,=B,F]3 [CG]3 z |[M:3/4] [CFc]3 [CF]3 | [CB]3 [CFA]3 | [CG]3 [CFc]3 | F2 E [F,A,CF]3 | %9
[M:1/8] [Ac]/-[CAc]/ |[M:3/4] [Bc]->[DBc] [EBc] [FBc]2 [EBc]/[DBc]/ | %11
 [EBc]>[EBc] [DBc] [CAc]2 c/c/ | d2 e/d/ c2 d/c/ |[M:7/8] z z z z z2 [Ac] |[M:3/4] [Bc]2 z2 z2 | %15
 [EBc]>[EBc] [DBc] [CAc]2 [CFA]/[CFA]/ | [DG]2 [DA]/[DB]/ [Cc]2 [CF]/[CF]/ |[M:5/8] F2 E/E/ F2 |] %18
V:3
 z3 z2 F,, | G,,3 A,,3 | B,,3 .A,,3 | F,,3 F,,3 |[M:7/8] G,,3 [C,E,B,]3 z | %5
[M:3/4] [A,,F,]3 [A,,F,]3 | [G,,E,]3 [F,,F,]3 | [B,,F,]3 [A,,F,]3 | G,,2 z2 z2 |[M:1/8] F,/F,/ | %10
[M:3/4] C,>C, C, C,2 C,/C,/ | C,>C, C, F,2[K:treble] [A,CF]/[A,CF]/ | %12
 [B,F]2 [B,F]/[B,F]/ [A,CF]2 [A,CF]/[A,CF]/ | %13
[M:7/8][K:bass] [G,CE]2 [G,CE]/[G,CE]/ [F,CF]3 [F,C]/F,/ |[M:3/4] C,>C, C, C,2 C,/C,/ | %15
 C,>C, C, F,2 F,/F,/ | [B,,B,]2 [B,,B,]/[B,,B,]/ [A,,F,]2 [A,,F,]/[A,,F,]/ | %17
[M:5/8] [C,G,B,]2 [C,B,C]/[C,B,C]/ [F,A,C]2 |] %18
V:4
 x6 | x6 | x6 | x6 |[M:7/8] x7 |[M:3/4] x6 | x6 | x6 | [B,C]4 z2 |[M:1/8] C/ z/ |[M:3/4] C2 z2 z2 | %11
 x6 | x6 |[M:7/8] B2 c/B/ A3 z/ C/ |[M:3/4] C>D [EBc] [FBc]2 [EBc]/[DBc]/ | x6 | x6 |[M:5/8] x5 |] %18
V:5
 x6 | x6 | x6 | x6 |[M:7/8] x7 |[M:3/4] x6 | x6 | x6 | C,2- [C,,C,] F,,3 |[M:1/8] x |[M:3/4] x6 | %11
 x5[K:treble] x | x6 |[M:7/8][K:bass] x7 |[M:3/4] x6 | x6 | x6 |[M:5/8] x5 |] %18

